X:1
T:Gather in the Sheaves
T:Gather in the Sheaves
T:Ira David Sankey
T:Frances Jane (Fanny) Crosby, 1895
T:Public Domain Courtesy of the Cyber Hymnal™
T:Public Domain Courtesy of the Cyber Hymnal™
C:Ira David Sankey
Z:Public Domain
Z:Courtesy of the Cyber Hymnal™
%%score ( 1 2 ) ( 3 4 )
L:1/8
Q:1/4=95
M:4/4
K:Bb
V:1 treble 
V:2 treble 
V:3 bass 
V:4 bass 
V:1
 [DF]>[DF] [DF]>[EG] [DF]2 [DF]2 | [B,D]>[DF] [FB]>[Fc] [EB]2 [EA]2 | %2
w: 1.~In the ear- ly morn- ing,|Ver- dant fields a- dorn- ing,|
w: 2.~When the days are bright- est,|When our hearts are light- est,|
w: 3.~Should our way be drear- y,|Let us ne- ver wear- y,|
 [CE]>[CE] [CE]>[DF] [CE]2 C2 | [B,D]>[B,D] [B,D]>[CE] [DF]4 | [DF]>[DF] [DF]>[EG] [DF]2 [DF]2 | %5
w: While the gold- en sun- light|Wakes the dew- y leaves.|Haste we now with glad- ness,|
w: When the love- ly sum- mer|Fair- est beau- ty weaves.|In the noon- tide beam- ing,|
w: Ear- nest, faith- ful la- bor|Great- est joy re- ceives.|Though we toil in sor- row,|
 [B,D]>[DF] [FB]>[Fc] [Fd]2 [DB]2 | [EG]>[EG] [Ge]>[Ge] [Gd]2 [Gc]2 | [FB]>[FA] [EG]>[EA] [DB]4 || %8
w: Ban- ish care and sad- ness;|Go and help the reap- ers|Ga- ther in the sheaves.|
w: In the twi- light gleam- ing,|Go and help the reap- ers|Ga- ther in the sheaves.|
w: Soon will dawn the mor- row,|When we’ll cross the riv- er|Bear- ing home the sheaves.|
"^Refrain" [Fc]>[Fc] [Fc]>[Fc] [Fc]4 | [Fd]>[Fd] [Fd]>[Fd] [Fd]4 | %10
w: ||
w: Ga- ther in the sheaves,|Ga- ther in the sheaves,|
w: ||
 [Ge]>[Ge] [Fe]>[Fc] [Fd]2 [FB]2 | [Fc]>[Fc] [=Ec]>[Ed] c4 | [DF]>[DF] [DF]>[EG] [DF]2 [DF]2 | %13
w: |||
w: While the voice of na- ture|Sweet- est mu- sic breathes:|Hear the Mas- ter call- ing,|
w: |||
 [B,D]>[DF] [FB]>[Fc] [Fd]2 [FB]2 | [EG]>[EG] [Ge]>[Ge] [Gd]2 [Gc]2 | [FB]>[FA] [EG]>[EA] [DB]4 |] %16
w: |||
w: Hear the e- choes fall- ing;|Go and help the reap- ers,|Ga- ther in the sheaves.|
w: |||
V:2
 x8 | x8 | x6 C2 | x8 | x8 | x8 | x8 | x8 || x8 | x8 | x8 | x4 (=E2 _E2) | x8 | x8 | x8 | x8 |] %16
V:3
 [B,,B,]>[B,,B,] [B,,B,]>[B,,B,] [B,,B,]2 [B,,B,]2 | [B,,F,]>[B,,B,] [D,B,]>[D,B,] [F,C]2 [F,C]2 | %2
 [F,A,]>[F,A,] [F,A,]>[F,A,] [F,A,]2 [F,A,]2 | [B,,B,]>[B,,F,] [B,,F,]>[B,,F,] [B,,B,]4 | %4
 [B,,B,]>[B,,B,] [B,,B,]>[B,,B,] [B,,B,]2 [B,,B,]2 | [B,,F,]>[B,,B,] [D,B,]>[F,A,] B,2 B,2 | %6
 [E,B,]>[E,B,] [C,C]>[C,C] [D,=B,]2 [E,C]2 | [F,D]>[F,C] [F,B,]>[F,C] [B,,B,]4 || %8
 [F,A,]>[F,A,] [F,A,]>[F,A,] [F,A,]4 | B,>B, B,>B, B,4 | [E,B,]>[E,B,] [F,A,]>[F,A,] B,2 [D,B,]2 | %11
 [F,A,]>[F,A,] [C,B,]>[C,B,] [F,A,]4 | B,>B, B,>B, [B,,B,]2 [B,,B,]2 | %13
 [B,,F,]>[B,,B,] [D,B,]>[F,A,] B,2 [D,B,]2 | [E,B,]>[E,B,] [C,C]>[C,C] [D,=B,]2 [E,E]2 | %15
 [F,D]>[F,C] [F,B,]>[F,C] [B,,B,]4 |] %16
V:4
 x8 | x8 | x8 | x8 | x8 | x4 B,2 B,2 | x8 | x8 || x8 | B,>B, B,>B, B,4 | x4 B,2 x2 | x8 | %12
 B,>B, B,>B, x4 | x4 B,2 x2 | x8 | x8 |] %16

